build/images/header/menu.svg

<svg width="684" height="110" viewBox="0 0 684 110" fill="none" xmlns="http://www.w3.org/2000/svg">
<path d="M127.52 0.369629H176.949V110H133.865V53.5566L101.552 110H75.1675L44.0234 55.4771V110H0.939453V0.369629H49.3672L88.8608 69.6714L127.52 0.369629Z" fill="white"/>
<path d="M338.477 28.7583H238.783V41.7837H338.477V68.5859H238.783V81.6113H338.477V110H195.699V0.369629H338.477V28.7583Z" fill="white"/>
<path d="M467.526 0.369629H510.86V110H459.176L399.81 44.7061V110H356.726V0.369629H408.41L467.526 65.7471V0.369629Z" fill="white"/>
<path d="M640.409 0.369629H683.744V75.0986C683.744 81.6113 681.823 87.5952 677.983 93.0503C674.197 98.4497 669.299 102.625 663.287 105.575C657.276 108.525 650.93 110 644.25 110H567.768C561.088 110 554.742 108.525 548.731 105.575C542.719 102.625 537.793 98.4497 533.952 93.0503C530.167 87.5952 528.274 81.6113 528.274 75.0986V0.369629H571.525V67.417C571.748 71.0352 573.223 74.0967 575.95 76.6016C578.734 79.0508 581.934 80.2197 585.552 80.1084H626.465C630.084 80.2197 633.256 79.0508 635.984 76.6016C638.712 74.1523 640.187 71.0908 640.409 67.417V0.369629Z" fill="white"/>
</svg>

<svg width="684" height="110" fill="none" xmlns="http://www.w3.org/2000/svg"><path d="M127.52.37h49.429V110h-43.084V53.557L101.552 110H75.167L44.024 55.477V110H.94V.37h48.428l39.493 69.3L127.52.37zm210.957 28.388h-99.694v13.026h99.694v26.802h-99.694V81.61h99.694V110H195.699V.37h142.778v28.388zM467.526.37h43.334V110h-51.684L399.81 44.706V110h-43.084V.37h51.684l59.116 65.377V.37zm172.883 0h43.335v74.729c0 6.512-1.921 12.496-5.761 17.951-3.786 5.4-8.684 9.575-14.696 12.525-6.011 2.95-12.357 4.425-19.037 4.425h-76.482c-6.68 0-13.026-1.475-19.037-4.425-6.012-2.95-10.938-7.125-14.779-12.525-3.785-5.455-5.678-11.439-5.678-17.951V.369h43.251v67.048c.223 3.618 1.698 6.68 4.425 9.185 2.784 2.449 5.984 3.618 9.602 3.506h40.913c3.619.112 6.791-1.057 9.519-3.506 2.728-2.45 4.203-5.511 4.425-9.185V.37z" fill="#fff"/></svg>
